X: 14
T: Old Willie Hunter
C: Ronald Cooper
S: http://homepages.ihug.co.nz/~dexy/music/shetland.abc
R: march
M: 4/4
L: 1/8
K: A
ed |:\
"A"cA (3AAA EAcA | eaga ecAc |\
[1,3 "Bm"dB (3BBB FBBc | dBba "E"gfed :|\
[2,4 "Bm"dBba "E"gfed | "A"cA"E"BG "A"A2 :|
|: (3efg |\
"A"aA (3AAA ecAc | eaga ecA[ac] |\
"Bm"bB (3BBB fdBc | dBba "E"gbeg |\
[1 "A"aA (3AAA ecAc | eaga ecAc |
"Bm"dBba "E"gfed | "A"cA"E"BG "A"A2 :|\
[2 "A"acea "E"gBeg | "D"fAdf "A"eAce |\
"Bm"dBba "E"gfed | "A"cA"E"BG "A"A2 |]
